X:589
T:Miss Stewart of Grantully
R:Reel
C:Niel Gow
B:The Athole Collection
M:C|
L:1/8
K:A
e|AAcA eAcA|=GGBG dGB=g|AAcA eAcA|Eaef cAA:|
||B|Aaga eaca|B=gdg B=GGB|Aaga eaca|faef cAAB|
Aaga eaca|B=gdg B=GGB|AAcA dBcA|Ea ef cAA|]

